src/topics/icons/appcelerator.svg

<svg height="224" preserveAspectRatio="xMidYMid" viewBox="0 0 256 224" width="256" xmlns="http://www.w3.org/2000/svg"><path d="m254.808984 210.372492-118.700492-205.58990376c-1.570225-2.73249198-4.488898-4.41634225-7.641668-4.41634225-3.152771 0-6.057754 1.68248128-7.636193 4.41634225l-118.7059679 205.58990376c-1.58254545 2.728385-1.58254545 6.097455 0 8.831315 1.5784385 2.729754 4.4888984 4.408129 7.63893048 4.408129h237.40919742c3.151402 0 6.057754-1.678375 7.636193-4.408129 1.582545-2.73386 1.582545-6.10293 0-8.831315" fill="#b01c33"/><path d="m143.793968 163.421818c-7.151572 9.165348-15.201198 11.176385-22.580021 11.176385-7.822375 0-16.315551-2.460064-16.315551-14.081369 0-12.068962 7.822374-15.424342 23.027679-15.424342h15.867893zm58.581561 9.326888-28.606288-12.524834 3.145925 8.337112-11.661006 2.16984v-57.6c0-25.0291342-20.340363-29.5029737-37.328085-29.5029737-18.559316 0-36.4341392 2.2341818-36.4341392 2.2341818v16.9863529l1.5647487 1.564749s16.9863525-2.235551 31.0677215-2.235551c12.51799 0 19.669562 5.811337 19.669562 15.870631v10.059294h-21.681968c-19.896813 0-38.8859893 8.491808-38.8859893 33.752299 0 25.025027 14.5249198 31.289498 29.9478933 31.289498 20.786652 0 30.171037-15.644749 30.171037-15.644749h.892578l-.443551 11.852663 1.559273 1.557904 34.250609-6.048171-.317604 8.907978z" fill="#fff"/></svg>

<?xml version="1.0" encoding="UTF-8" standalone="no"?>
<svg width="256px" height="224px" viewBox="0 0 256 224" version="1.1" xmlns="http://www.w3.org/2000/svg" xmlns:xlink="http://www.w3.org/1999/xlink" preserveAspectRatio="xMidYMid">
	<g>
		<path d="M254.808984,210.372492 L136.108492,4.78258824 C134.538267,2.05009626 131.619594,0.366245989 128.466824,0.366245989 C125.314053,0.366245989 122.40907,2.04872727 120.830631,4.78258824 L2.1246631,210.372492 C0.542117647,213.100877 0.542117647,216.469947 2.1246631,219.203807 C3.7031016,221.933561 6.6135615,223.611936 9.76359358,223.611936 L247.172791,223.611936 C250.324193,223.611936 253.230545,221.933561 254.808984,219.203807 C256.391529,216.469947 256.391529,213.100877 254.808984,210.372492" fill="#B01C33"></path>
		<path d="M143.793968,163.421818 C136.642396,172.587166 128.59277,174.598203 121.213947,174.598203 C113.391572,174.598203 104.898396,172.138139 104.898396,160.516834 C104.898396,148.447872 112.72077,145.092492 127.926075,145.092492 L143.793968,145.092492 L143.793968,163.421818 L143.793968,163.421818 Z M202.375529,172.748706 L173.769241,160.223872 L176.915166,168.560984 L165.25416,170.730824 L165.25416,113.130824 C165.25416,88.1016898 144.913797,83.6278503 127.926075,83.6278503 C109.366759,83.6278503 91.4919358,85.8620321 91.4919358,85.8620321 L91.4919358,102.848385 L93.0566845,104.413134 C93.0566845,104.413134 110.043037,102.177583 124.124406,102.177583 C136.642396,102.177583 143.793968,107.98892 143.793968,118.048214 L143.793968,128.107508 L122.112,128.107508 C102.215187,128.107508 83.2260107,136.599316 83.2260107,161.859807 C83.2260107,186.884834 97.7509305,193.149305 113.173904,193.149305 C133.960556,193.149305 143.344941,177.504556 143.344941,177.504556 L144.237519,177.504556 L143.793968,189.357219 L145.353241,190.915123 L179.60385,184.866952 L179.286246,193.77493 L202.375529,172.748706 L202.375529,172.748706 Z" fill="#FFFFFF"></path>
	</g>
</svg>
